X: 1364
T: Mevsim-i Gül Geldi Yine
C: Muallim İsmail Hakkı Bey
O: Turkey
F: http://compmusic.upf.edu/node/140
N: rehavi--sarki--sofyan--mevsim-i_gul--muallim_ismail_hakki_bey
N: makam= rehavi
N: form= sarki
N: usul= sofyan = 4/4
M: 4/4
L: 1/16
K: C _1/4B ^f  
Q: 1/4=72
%%MIDI tuningsystem comma53
G4 G4 .G2.G2 D4  | G4 _2/4B2A2 .^3/4F2.F2 F4  | \
w:  GİRİŞ  |   | 
A4 c2_2/4B2 ABG2 d4  | edc2 _2/4BcA2 ^3/4FGFG E4  | 
w:   |   | 
d4 d2e2 edc2 c_2/4BA2  | A_2/4BGA ^3/4FGEF DEFG A4  | 
w:   |   | 
G2G2 G3_2/4B A2G2 ^3/4F3c  | c2_2/4B2 A3B .G2.G2 G4  | \
w:   |   | 
G4 G4 .G2.G2 D4  | G4 _2/4B2A2 .^3/4F2.F2 F4  | 
w:  GİRİŞ  |   | 
A4 c2_2/4B2 ABG2 d4  | edc2 _2/4BcA2 ^3/4FGFG E4  | \
w:   |   | 
d4 d2e2 edc2 c_2/4BA2  | 
w:   | 
A_2/4BGA ^3/4FGEF DEFG A4  | G2G2 G3_2/4B A2G2 ^3/4F3c  | 
w:   |   | 
c2_2/4B2 A3B .G2.G2 G4  | G4 _2/4B2c2 d3g g^3/4fg2  | \
w:   |  Mev sim_ i  gül   | 
^3/4f3e e/d/e/f/ed d/c/d/e/dc _2/4BAG2  | 
w:  gel *  di  *  *  *  yi *  ne    | 
G4 _2/4B2c2 d3g g^3/4fg2  | ^3/4f3e e/d/e/f/ed d4 z4  | \
w:  Mev sim_ i  gül   |  gel *  di  *  *  *  yi *  ne    | 
e4 e2c2 e3/2d/e^3/4f ede2  | 
w:  Bül bül_ i  hoş   | 
e3d ^3/4f3/2g/fe d3g gfg2  | d4 edc_2/4B cBcd cBA2  | 
w:  nağ *  me  *  i *  le    |  Bül bül_ *  i  *  hoş   | 
D4 E2^3/4F2 G4 _B4  | _B3A G2^3/4F2 G3D _EFG2  | \
w:  nağ me  i le   SAZ  |  Zevk  *  i de lim  SAZ  | 
_B3A B2c2 d_edc BAG2  | 
w:  gü *  le  gü le   | 
_B3A G2^3/4F2 G3_e d^cd2  | _e3d ^3/4f2fe d4 z4  | \
w:  Zevk  *  i de lim  SAZ  |  gü *  le  gü *  le    | 
e4 e2c2 e3/2d/e^3/4f ede2  | 
w:  Bül bül_ i  hoş   | 
e3d ^3/4f3/2g/fe d3g gfg2  | d4 edc_2/4B cBcd cBA2  | 
w:  nağ *  me  *  i *  le    |  Bül bül_ *  i  *  hoş   | 
D4 E2^3/4F2 G4 _B4  | G2_2/4B2 B2d2 d2c2 cBA2  | \
w:  nağ me  i le   SAZ  |  ARANAĞME  | 
DE^3/4FG A2c2 c2_2/4B2 BAG2  | 
w:   | 
d2de edc2 c_2/4BAc BAB2  | A2c2 _2/4B2A2 G2d2 G4  | \
w:   |   | 
G2_2/4B2 B2d2 d2c2 cBA2  | 
w:  ARANAĞME  | 
DE^3/4FG A2c2 c2_2/4B2 BAG2  | d2de edc2 c_2/4BAc BAB2  | 
w:   |   | 
A2c2 _2/4B2A2 G2d2 G4  | |


